public/icon/gift-box.svg

<svg width="39" height="39" viewBox="0 0 39 39" fill="none" xmlns="http://www.w3.org/2000/svg">
<path d="M7.32081 6.52239C7.32081 4.92684 7.95465 3.39663 9.08287 2.26841C10.2111 1.14018 11.7413 0.506348 13.3369 0.506348C14.9324 0.506348 16.4626 1.14018 17.5908 2.26841C18.7191 3.39663 19.3529 4.92684 19.3529 6.52239C19.3529 4.92684 19.9867 3.39663 21.115 2.26841C22.2432 1.14018 23.7734 0.506348 25.3689 0.506348C26.9645 0.506348 28.4947 1.14018 29.6229 2.26841C30.7512 3.39663 31.385 4.92684 31.385 6.52239V6.53683C31.385 6.70528 31.385 7.18656 31.2935 7.7256H36.1978C36.836 7.7256 37.4481 7.97913 37.8994 8.43042C38.3507 8.88171 38.6042 9.49379 38.6042 10.132V12.5384C38.6042 13.1767 38.3507 13.7887 37.8994 14.24C37.4481 14.6913 36.836 14.9449 36.1978 14.9449H2.50798C1.86976 14.9449 1.25768 14.6913 0.806386 14.24C0.355095 13.7887 0.101563 13.1767 0.101562 12.5384V10.132C0.101563 9.49379 0.355095 8.88171 0.806386 8.43042C1.25768 7.97913 1.86976 7.7256 2.50798 7.7256H7.41226C7.3487 7.33258 7.31811 6.93494 7.32081 6.53683V6.52239ZM9.89087 7.7256H16.9465V6.52239C16.9465 6.04837 16.8531 5.57899 16.6717 5.14105C16.4903 4.70311 16.2244 4.30518 15.8892 3.97C15.5541 3.63481 15.1561 3.36893 14.7182 3.18753C14.2803 3.00613 13.8109 2.91276 13.3369 2.91276C12.8628 2.91276 12.3935 3.00613 11.9555 3.18753C11.5176 3.36893 11.1196 3.63481 10.7845 3.97C10.4493 4.30518 10.1834 4.70311 10.002 5.14105C9.8206 5.57899 9.72723 6.04837 9.72723 6.52239C9.72723 6.72694 9.73204 7.18175 9.83552 7.55715C9.84998 7.61453 9.86847 7.67082 9.89087 7.7256ZM21.7593 7.7256H28.8149C28.8371 7.67073 28.8555 7.61445 28.8703 7.55715C28.9738 7.18175 28.9786 6.72694 28.9786 6.52239C28.9786 5.56506 28.5983 4.64694 27.9213 3.97C27.2444 3.29306 26.3263 2.91276 25.3689 2.91276C24.4116 2.91276 23.4935 3.29306 22.8166 3.97C22.1396 4.64694 21.7593 5.56506 21.7593 6.52239V7.7256ZM36.1978 17.3513V35.3994C36.1978 36.3567 35.8175 37.2749 35.1406 37.9518C34.4636 38.6287 33.5455 39.009 32.5882 39.009H21.7593V17.3513H36.1978ZM6.11761 39.009C5.16027 39.009 4.24215 38.6287 3.56521 37.9518C2.88828 37.2749 2.50798 36.3567 2.50798 35.3994V17.3513H16.9465V39.009H6.11761Z" fill="url(#paint0_linear_104_2074)"/>
<defs>
<linearGradient id="paint0_linear_104_2074" x1="0.101562" y1="19.7577" x2="38.6042" y2="19.7577" gradientUnits="userSpaceOnUse">
<stop stop-color="#3068D0"/>
<stop offset="0.5" stop-color="#836BAF"/>
<stop offset="1" stop-color="#978262"/>
</linearGradient>
</defs>
</svg>

<svg width="39" height="39" fill="none" xmlns="http://www.w3.org/2000/svg"><path d="M7.32 6.522a6.016 6.016 0 0 1 12.033 0 6.016 6.016 0 1 1 12.032 0v.015c0 .168 0 .65-.091 1.189h4.904a2.406 2.406 0 0 1 2.406 2.406v2.406a2.406 2.406 0 0 1-2.406 2.407H2.508a2.406 2.406 0 0 1-2.406-2.407v-2.406a2.406 2.406 0 0 1 2.406-2.406h4.904a7.143 7.143 0 0 1-.091-1.19v-.014Zm2.57 1.204h7.056V6.522a3.61 3.61 0 0 0-7.219 0c0 .205.005.66.109 1.035.014.058.032.114.055.169Zm11.87 0h7.055c.022-.055.04-.112.055-.169.104-.375.109-.83.109-1.035a3.61 3.61 0 1 0-7.22 0v1.204Zm14.438 9.625V35.4a3.61 3.61 0 0 1-3.61 3.61H21.76V17.351h14.439ZM6.118 39.01a3.61 3.61 0 0 1-3.61-3.61V17.351h14.439V39.01H6.117Z" fill="url(#a)"/><defs><linearGradient id="a" x1=".102" y1="19.758" x2="38.604" y2="19.758" gradientUnits="userSpaceOnUse"><stop stop-color="#3068D0"/><stop offset=".5" stop-color="#836BAF"/><stop offset="1" stop-color="#978262"/></linearGradient></defs></svg>
